X:1
T:Vae qui sapientes
T:Heinrich Isaac
T:Source : Bicinia---Tomus II---Wittemberg---G.Rhau---1545. Editor : André Vierendeels (23/06/17).
T:Notes :  Original clefs : G3, C3 Original note values have been halved Editorial accidentals above the staff Square bracket indicates ligature Dotted brackets indivate black notes
T:Vae qui sapientes
T:©
T:©
C:Heinrich Isaac
Z:©
%%score [ 1 2 ]
L:1/8
Q:1/4=120
M:2/2
K:C
V:1 treble nm="Soprano" snm="S"
V:2 treble-8 nm="Tenor" snm="T"
V:1
 z8 | z8 | A8 | B4 c4 | d8 | d4 c2 B2- | BA A4 G2 | F2 E3 D D2- | D2 C2 D2 F2- | FE F2 GFED | %10
w: ||Vae|qui sa-|pi-|en- tes e-|||* * stes in|_ _ o- cu- * * *|
 C2 D4 C2 | D4 z4 | A8 | F8 | D8- | D8 | F4 A4 | G3 A _BAGF | E2 A4 G2 | A8 | z8 | A6 F2- | %22
w: lis ve- *|stris,|et|co-|ram|_|vo- bis|met _ _ _ _ _|i- * *|psis||pru- den-|
 F2 ED E4 | D4 C2 D2 | E2 F2 G2 A2- | AG F4 E2 | F4 c2 A2 | c3 _B G3 A | _B2 G2 B3 A | F3 G A2 F2 | %30
w: |tes, ut qui|po- ten- tes e-||stis, ad bi-|ben- * * *|* dum vi _|_ _ _ num|
 A3 G E3 F | G2 E2 G3 F | D3 E FG A2- | A2 E3 FGA | _B2 G2 A2 B2 | c3 _B A2 G2 | c6 _B2- | %37
w: et _ _ _|vi- ri for- *|* * * * tes|_ ad _ _ _|_ _ mi- *|scen- * * dam|e bri|
 BA A4 G2 | A4 F4 | G4 E4 | F4 D4 | E4 C4 | F6 ED | F6 E2- | ED D4 C2 | D8 |] %46
w: _ e- ta- *|tem, ad|mi- scen-|da e|bri- e-||ta- *||tem|
V:2
 A8 | B4 c4 | d4 c2 d2- | d2 G2 A2 F2- | F2 G2 D2 G2 | F2 _B2 A2 d2- |"^#" d2 c2 B4 | A4 G2 F2 | %8
w: Vae|qui sa-|pi- en- *||* * tes e-||||
 E4 D2 A2- | AG A2 _BAGF | E2 D2 E4 | D8 | z2 d3 cdc | A2 _B2 BABA | F2 G3 FGF | D2 G3 F _B2 | %16
w: * stis in|_ _ o- cu- * * *|* lis ve-|stris,|et _ _ _|_ co- * * * *|ram _ _ _ _|_ _ _ _|
 A2 d3 c f2 | e2 c2 d2 e2- |"^b" e2 c2 B4 | A4 A2 F2- | F2 ED E4 | DEFG A2 B2 |"^#" A2 d4 c2 | %23
w: * * vo- bis-|met i- * *||psis pru- den-||||
 d2 D2 E2 F2 |"^b" G2 A2 B2 c2- | cB A2 G4 | F4 z2 c2 | A2 c3 B G2- | GA _B2 G2 B2- | BA F3 G A2 | %30
w: tes, ut qui po-|ten- tes e- *||stis, ad|bi- ben- * *|* * * dum, vi-||
 F2 A3 G E2- | EF G2 E2 G2- | GF D3 EFG | A4 E3 F |"^b" GA B2 c2 d2 | e3 d c2 B2 | %36
w: num, et _ _|_ _ _ vi- *|* ri for- * * *|tes ad _|_ _ _ mi- *|scen- * * dam|
"^b" A2 e2 c2 d2 |"^b" A4 B4 | z2 A4 _B2- |"^#" BA G4 A2- | AF F4 G2- | GE E4 A2- | A2 D3 E FG | %43
w: e- bri- e- ta-|* tem,|ad mi-|* * * scen-|* * * dam|_ _ _ e-|* bri- * * *|
 A3 B A2 G2- | GFED E4 | D8 |] %46
w: * * e- ta-||tem.|

